X:1
T:Minuet. SenH.131, A
T:Minuet. SenH.131, A
T:in Hand C
C:in Hand C
L:1/8
Q:1/4=100
M:3/4
K:G
V:1 treble 
V:1
 G2 GGGG | B2 BBBB | d2 dddd | d4 g2 | (ed)(cB)(AG) | e4 d2 | d2 c2 B2 | AGABAB | G2 GGGG | %9
 B2 BBBB | d2 dddd | d4 g2 | (ed)(cB)(AG) | c'4 b2 | abc'bab | g6 || f4 g2 | a2 fgfg | a2 fgfg | %19
 a2 gfed | B4 c2 | d2 BcBc | d2 BcBc | dcBA G2 | e2 efga | f4 (ed) | b2 a2 gf | g6 |] %28

